d1
$ sometimesBy (1/4) (spread _fast [1,1,1,1,1])
$ s "bass1*4"
# n (slow 0.1 $ choose [2..5])
# pan (slow 0.11 $ rand)
# cut (slow 0.12 $ choose [0,0,0,1])
# gain (slow 0.13 $ scalex 2 3 $ rand)
# speed (discretise (1/4) $ slow 0.16 $ scalex 1 3 $ rand)
